X:15
T:Bata Bharra
S:Alexander Mackay, A collection of Reels...
B:NLS Glen.344
N:Mc16 in Gore's Scottish Fiddle Music Index
N:Gore guesses 1802, a note (by Murdoch Henderson)
N:on the titlepage says there's an 1832 watermark.
Z:Jack Campin, <http://www.campin.me.uk/>
M:9/8
L:1/8
K:A
e|:cBA AEA AEA|cBA AEA fga|cBA AEA Adc|dBG GAB d2e:|
   cde eca ecA|cde ece fga|cde eca ece|dBG GAB d2e |
   cde eca ecA|cde ece efg|agf ged cec|dBG GAB d2e|]
